public/img/marvell-logo-2.svg

<svg height="31" viewBox="0 0 190 31" width="190" xmlns="http://www.w3.org/2000/svg"><g fill="none"><g fill="#112a3e" transform="translate(105 10)"><path d="m13 12.5c-1.2 1.5-3.2 2.6-5.4 2.6-4.2 0-7.2-3-7.2-7.2 0-4 3-7.2 7-7.2 2 0 3.8.8 5.1 2.1l-.8.8c-1-1.1-2.5-1.8-4.2-1.8-3.3 0-5.8 2.7-5.8 6 0 3.4 2.4 6 5.9 6 1.9 0 3.6-.9 4.6-2.2z"/><path d="m18.4 15.1c-2.7 0-4.7-2.1-4.7-4.7s2-4.7 4.7-4.7 4.7 2.1 4.7 4.7-2 4.7-4.7 4.7zm0-8.4c-2.1 0-3.5 1.6-3.5 3.7 0 2 1.5 3.7 3.5 3.7 2.1 0 3.5-1.6 3.5-3.7s-1.5-3.7-3.5-3.7z"/><path d="m25.3 7.1c.7-1 1.9-1.5 3.2-1.5s2.5.5 3.2 1.5c.5.7.8 1.4.8 2.9v4.8h-1.1v-4.8c0-1.2-.2-1.8-.5-2.2-.5-.8-1.4-1.2-2.4-1.2-1.3 0-2.4.7-3.1 1.9v6.3h-1.1v-9.1h1.1v1.4z"/><path d="m34.5 12.9c.8.7 1.7 1.1 2.7 1.1 1.1 0 2.1-.6 2.1-1.6 0-2.3-5.2-1.1-5.2-4.2 0-1.7 1.6-2.6 3.1-2.6 1.2 0 2.3.4 2.9.9l-.6.9c-.8-.5-1.3-.7-2.3-.7s-2 .5-2 1.6c0 2 5.2.9 5.2 4.1 0 1.7-1.4 2.7-3.1 2.7-1.5 0-2.7-.6-3.5-1.3z"/><path d="m49 13.7c-.6.8-1.8 1.4-3.1 1.4-1.5 0-2.7-.7-3.4-1.9-.3-.6-.5-1.4-.5-2.6v-4.8h1.1v4.7c0 1.3.2 1.9.5 2.3.5.7 1.3 1.2 2.3 1.2 1.2 0 2.4-.8 3-1.9v-6.3h1.1v9.1h-1z"/><path d="m52.1.8h1.1v14.1h-1.1z"/><path d="m60.8 6.9h-3.1v5c0 .8.2 1.2.4 1.5.3.4.8.6 1.5.6.3 0 .6 0 1-.1l.2 1c-.3.1-.8.2-1.2.2-.8 0-1.8-.3-2.4-1-.4-.5-.6-1.2-.6-2.2v-4.9h-2.6v-1.1h2.5v-2.5h1.1v2.5h3.1v1z"/><path d="m63.1 1.7c.6 0 1 .5 1 1 0 .6-.5 1-1 1-.6 0-1-.4-1-1s.5-1 1-1zm-.5 4.1h1.1v9.1h-1.1z"/><path d="m67.2 7.1c.7-1 1.9-1.5 3.2-1.5s2.5.5 3.2 1.5c.5.7.8 1.4.8 2.9v4.8h-1.1v-4.8c0-1.2-.2-1.8-.5-2.2-.5-.8-1.4-1.2-2.4-1.2-1.3 0-2.4.7-3.1 1.9v6.3h-1.1v-9.1h1.1v1.4z"/><path d="m84.3 17.8c-.7 1.2-2 2.1-3.9 2.1-1.7 0-3.2-.8-4.1-2.2l.9-.7c.7 1.1 1.8 1.8 3.2 1.8 1.5 0 2.5-.7 2.9-1.6.3-.6.4-1.2.4-2.3v-1.3c-.7.9-1.8 1.5-3.2 1.5-.9 0-1.8-.2-2.7-.9-1.2-.8-1.9-2.2-1.9-3.9 0-1.5.7-2.8 1.7-3.7.8-.6 1.8-1 2.9-1 1.3 0 2.5.5 3.3 1.5v-1.3h1.1v9c-.1 1.4-.2 2.3-.6 3zm-.6-9.3c-.4-.7-1.6-1.8-3.3-1.8-.8 0-1.6.3-2.2.8-.8.7-1.3 1.7-1.3 2.9 0 1.3.6 2.4 1.4 3 .6.4 1.3.7 2.1.7 1.3 0 2.5-.8 3.2-2v-3.6z"/></g><g fill="#112a3e" transform="translate(37 10)"><path d="m7.9 9.1 5.1-8.4h1.9v14.1h-2.7v-7.8l-3.4 5.5h-1.9l-3.4-5.5v7.8h-2.7v-14.1h1.9z"/><path d="m26.4 14.7h-2.5v-.8c-.8.7-1.7 1-2.7 1-1.4 0-2.8-.6-3.7-1.6-.8-.9-1.2-2.1-1.2-3.4 0-2.9 2.1-5.1 4.8-5.1 1.1 0 2.1.4 2.8 1v-.8h2.5zm-2.6-6.3c-.5-.7-1.4-1.2-2.4-1.2-1.5 0-2.5 1.3-2.5 2.7 0 1.5 1.1 2.7 2.6 2.7 1 0 1.8-.5 2.3-1.2z"/><path d="m34.3 7.3c-.2-.1-.6-.1-.9-.1-1.1 0-2 .8-2.4 1.4v6.1h-2.6v-9.7h2.5v1c.6-.7 1.6-1.2 2.8-1.2.4 0 .6 0 .9.1z"/><path d="m40.3 10.9 2.7-5.9h2.7l-4.5 9.7h-1.8l-4.5-9.7h2.7z"/><path d="m54.8 13.2c-.9 1.1-2.5 1.7-4 1.7-2.9 0-5.1-2-5.1-5.1 0-2.7 1.8-5.1 4.7-5.1 2.7 0 4.6 2.3 4.6 5 0 .3 0 .5-.1.7h-6.7c.1 1.4 1.2 2.3 2.6 2.3 1.1 0 2-.6 2.4-1.1zm-2.4-4.6c-.1-.9-.9-1.7-1.9-1.7-1.1 0-2 .8-2.1 1.7z"/><path d="m59 14.7h-2.6v-14.3h2.6z"/><path d="m64.0727273 14.4h-2.5454546v-14h2.5454546z"/></g><path d="m29.6 30.2-14.8-14.8 14.8-14.7v14.7z" fill="#27ae60"/><path d="m.1 30.2 14.7-14.8-14.7-14.7v14.7z" fill="#27ae60"/><path d="m29.6 30.2-14.8-14.8-14.7 14.8h14.7z" fill="#9af470"/><path d="m29.6 30.2-14.8-14.8-14.7 14.8h14.7z" fill="#2ecc71"/></g></svg>

<?xml version="1.0" encoding="UTF-8"?>
<svg width="190px" height="31px" viewBox="0 0 190 31" version="1.1" xmlns="http://www.w3.org/2000/svg" xmlns:xlink="http://www.w3.org/1999/xlink">
    <!-- Generator: Sketch 57 (83077) - https://sketch.com -->
    <title>marvell-logo-2</title>
    <desc>Created with Sketch.</desc>
    <g id="Page-1" stroke="none" stroke-width="1" fill="none" fill-rule="evenodd">
        <g id="marvell-logo-2" fill-rule="nonzero">
            <g id="XMLID_566_" transform="translate(105.000000, 10.000000)" fill="#112A3E">
                <path d="M13,12.5 C11.8,14 9.8,15.1 7.6,15.1 C3.4,15.1 0.4,12.1 0.4,7.9 C0.4,3.9 3.4,0.7 7.4,0.7 C9.4,0.7 11.2,1.5 12.5,2.8 L11.7,3.6 C10.7,2.5 9.2,1.8 7.5,1.8 C4.2,1.8 1.7,4.5 1.7,7.8 C1.7,11.2 4.1,13.8 7.6,13.8 C9.5,13.8 11.2,12.9 12.2,11.6 L13,12.5 Z" id="XMLID_567_"></path>
                <path d="M18.4,15.1 C15.7,15.1 13.7,13 13.7,10.4 C13.7,7.8 15.7,5.7 18.4,5.7 C21.1,5.7 23.1,7.8 23.1,10.4 C23.1,13 21.1,15.1 18.4,15.1 Z M18.4,6.7 C16.3,6.7 14.9,8.3 14.9,10.4 C14.9,12.4 16.4,14.1 18.4,14.1 C20.5,14.1 21.9,12.5 21.9,10.4 C21.9,8.3 20.4,6.7 18.4,6.7 Z" id="XMLID_569_"></path>
                <path d="M25.3,7.1 C26,6.1 27.2,5.6 28.5,5.6 C29.8,5.6 31,6.1 31.7,7.1 C32.2,7.8 32.5,8.5 32.5,10 L32.5,14.8 L31.4,14.8 L31.4,10 C31.4,8.8 31.2,8.2 30.9,7.8 C30.4,7 29.5,6.6 28.5,6.6 C27.2,6.6 26.1,7.3 25.4,8.5 L25.4,14.8 L24.3,14.8 L24.3,5.7 L25.4,5.7 L25.4,7.1 L25.3,7.1 Z" id="XMLID_674_"></path>
                <path d="M34.5,12.9 C35.3,13.6 36.2,14 37.2,14 C38.3,14 39.3,13.4 39.3,12.4 C39.3,10.1 34.1,11.3 34.1,8.2 C34.1,6.5 35.7,5.6 37.2,5.6 C38.4,5.6 39.5,6 40.1,6.5 L39.5,7.4 C38.7,6.9 38.2,6.7 37.2,6.7 C36.2,6.7 35.2,7.2 35.2,8.3 C35.2,10.3 40.4,9.2 40.4,12.4 C40.4,14.1 39,15.1 37.3,15.1 C35.8,15.1 34.6,14.5 33.8,13.8 L34.5,12.9 Z" id="XMLID_676_"></path>
                <path d="M49,13.7 C48.4,14.5 47.2,15.1 45.9,15.1 C44.4,15.1 43.2,14.4 42.5,13.2 C42.2,12.6 42,11.8 42,10.6 L42,5.8 L43.1,5.8 L43.1,10.5 C43.1,11.8 43.3,12.4 43.6,12.8 C44.1,13.5 44.9,14 45.9,14 C47.1,14 48.3,13.2 48.9,12.1 L48.9,5.8 L50,5.8 L50,14.9 L49,14.9 L49,13.7 Z" id="XMLID_678_"></path>
                <polygon id="XMLID_680_" points="52.1 0.8 53.2 0.8 53.2 14.9 52.1 14.9"></polygon>
                <path d="M60.8,6.9 L57.7,6.9 L57.7,11.9 C57.7,12.7 57.9,13.1 58.1,13.4 C58.4,13.8 58.9,14 59.6,14 C59.9,14 60.2,14 60.6,13.9 L60.8,14.9 C60.5,15 60,15.1 59.6,15.1 C58.8,15.1 57.8,14.8 57.2,14.1 C56.8,13.6 56.6,12.9 56.6,11.9 L56.6,7 L54,7 L54,5.9 L56.5,5.9 L56.5,3.4 L57.6,3.4 L57.6,5.9 L60.7,5.9 L60.7,6.9 L60.8,6.9 Z" id="XMLID_682_"></path>
                <path d="M63.1,1.7 C63.7,1.7 64.1,2.2 64.1,2.7 C64.1,3.3 63.6,3.7 63.1,3.7 C62.5,3.7 62.1,3.3 62.1,2.7 C62.1,2.1 62.6,1.7 63.1,1.7 Z M62.6,5.8 L63.7,5.8 L63.7,14.9 L62.6,14.9 L62.6,5.8 Z" id="XMLID_684_"></path>
                <path d="M67.2,7.1 C67.9,6.1 69.1,5.6 70.4,5.6 C71.7,5.6 72.9,6.1 73.6,7.1 C74.1,7.8 74.4,8.5 74.4,10 L74.4,14.8 L73.3,14.8 L73.3,10 C73.3,8.8 73.1,8.2 72.8,7.8 C72.3,7 71.4,6.6 70.4,6.6 C69.1,6.6 68,7.3 67.3,8.5 L67.3,14.8 L66.2,14.8 L66.2,5.7 L67.3,5.7 L67.3,7.1 L67.2,7.1 Z" id="XMLID_687_"></path>
                <path d="M84.3,17.8 C83.6,19 82.3,19.9 80.4,19.9 C78.7,19.9 77.2,19.1 76.3,17.7 L77.2,17 C77.9,18.1 79,18.8 80.4,18.8 C81.9,18.8 82.9,18.1 83.3,17.2 C83.6,16.6 83.7,16 83.7,14.9 L83.7,13.6 C83,14.5 81.9,15.1 80.5,15.1 C79.6,15.1 78.7,14.9 77.8,14.2 C76.6,13.4 75.9,12 75.9,10.3 C75.9,8.8 76.6,7.5 77.6,6.6 C78.4,6 79.4,5.6 80.5,5.6 C81.8,5.6 83,6.1 83.8,7.1 L83.8,5.8 L84.9,5.8 L84.9,14.8 C84.8,16.2 84.7,17.1 84.3,17.8 Z M83.7,8.5 C83.3,7.8 82.1,6.7 80.4,6.7 C79.6,6.7 78.8,7 78.2,7.5 C77.4,8.2 76.9,9.2 76.9,10.4 C76.9,11.7 77.5,12.8 78.3,13.4 C78.9,13.8 79.6,14.1 80.4,14.1 C81.7,14.1 82.9,13.3 83.6,12.1 L83.6,8.5 L83.7,8.5 Z" id="XMLID_689_"></path>
            </g>
            <g id="XMLID_548_" transform="translate(37.000000, 10.000000)" fill="#112A3E">
                <polygon id="XMLID_563_" points="7.9 9.1 13 0.7 14.9 0.7 14.9 14.8 12.2 14.8 12.2 7 8.8 12.5 6.9 12.5 3.5 7 3.5 14.8 0.8 14.8 0.8 0.7 2.7 0.7"></polygon>
                <path d="M26.4,14.7 L23.9,14.7 L23.9,13.9 C23.1,14.6 22.2,14.9 21.2,14.9 C19.8,14.9 18.4,14.3 17.5,13.3 C16.7,12.4 16.3,11.2 16.3,9.9 C16.3,7 18.4,4.8 21.1,4.8 C22.2,4.8 23.2,5.2 23.9,5.8 L23.9,5 L26.4,5 L26.4,14.7 L26.4,14.7 Z M23.8,8.4 C23.3,7.7 22.4,7.2 21.4,7.2 C19.9,7.2 18.9,8.5 18.9,9.9 C18.9,11.4 20,12.6 21.5,12.6 C22.5,12.6 23.3,12.1 23.8,11.4 L23.8,8.4 Z" id="XMLID_560_"></path>
                <path d="M34.3,7.3 C34.1,7.2 33.7,7.2 33.4,7.2 C32.3,7.2 31.4,8 31,8.6 L31,14.7 L28.4,14.7 L28.4,5 L30.9,5 L30.9,6 C31.5,5.3 32.5,4.8 33.7,4.8 C34.1,4.8 34.3,4.8 34.6,4.9 L34.3,7.3 Z" id="XMLID_558_"></path>
                <polygon id="XMLID_556_" points="40.3 10.9 43 5 45.7 5 41.2 14.7 39.4 14.7 34.9 5 37.6 5"></polygon>
                <path d="M54.8,13.2 C53.9,14.3 52.3,14.9 50.8,14.9 C47.9,14.9 45.7,12.9 45.7,9.8 C45.7,7.1 47.5,4.7 50.4,4.7 C53.1,4.7 55,7 55,9.7 C55,10 55,10.2 54.9,10.4 L48.2,10.4 C48.3,11.8 49.4,12.7 50.8,12.7 C51.9,12.7 52.8,12.1 53.2,11.6 L54.8,13.2 Z M52.4,8.6 C52.3,7.7 51.5,6.9 50.5,6.9 C49.4,6.9 48.5,7.7 48.4,8.6 L52.4,8.6 Z" id="XMLID_553_"></path>
                <polygon id="XMLID_551_" points="59 14.7 56.4 14.7 56.4 0.4 59 0.4"></polygon>
                <polygon id="XMLID_549_" points="64.0727273 14.4 61.5272727 14.4 61.5272727 0.4 64.0727273 0.4"></polygon>
            </g>
            <polygon id="XMLID_547_" fill="#27AE60" points="29.6 30.2 14.8 15.4 29.6 0.7 29.6 15.4"></polygon>
            <polygon id="XMLID_546_" fill="#27AE60" points="0.1 30.2 14.8 15.4 0.1 0.7 0.1 15.4"></polygon>
            <polygon id="XMLID_545_" fill="#9AF470" points="29.6 30.2 14.8 15.4 0.1 30.2 14.8 30.2"></polygon>
            <polygon id="XMLID_544_" fill="#2ECC71" points="29.6 30.2 14.8 15.4 0.1 30.2 14.8 30.2"></polygon>
        </g>
    </g>
</svg>
